X:1
T:Puff The Magic Dragon
C:Peter Yarrow and Leonard Lipton
M:2/2%(3/4, 4/4, 6/8)
L:1/4%(1/8, 1/4)
V:1 clef=treble octave=0
%%continueall 1
%%partsbox 1
%%writehistory 1
K:Cmaj%(D, C)
P:A Verses
|:"C" c z/2 c/2 c c|"Em"B2 G z|"F"A3/2 c/2-c c|"C"G2 z G
w:1~Puff, the mag-ic drag-on Lived by_ the sea, And
w:2~ge-ther they would tra-vel~on~a boat~with bil-_lowed sail._
w:3~drag-on lives for-ev-er~but not~so lit-_tle boys;_
w:4~head was bent in sor-row; green~scales fell_ like rain._
|"F"F/2 F G/2-G F|"C"E/2 G "Am"c/2-c c/2c/2|"D7"c A B/2 c "G7"d/2-|d3 z
w:fro-licked in_ the Au-tumn mist_ in a land called Ho-nah-lee._
w:Jack-ie kept_ a look-out perched_ on_ Puff's gi-gan-tic tail._
w:Paint-ed wings_ and gi-ant rings_ make_ way for oth-er toys._
w:Puff no long-_er went to play_ a-_long the cher-ry lane. With
|"C"c/2 c c/2-c/2 c "Em"B/2-|B/2 G3/2-G2|"F"A A c c|"C"G z z G
w:Lit-tle Jack-_ie Pa-_per_ loved that ras-cal, Puff. And
w:No-ble kings_ and prin-_ces would bow  when e'er they came._
w:One grey night_ it hap-_pened, Jackie Pa-per came no more, And
w:out his life-_long friend,___ Puff could not be brave, So
|"F"F/2 F G/2-G F|"C"E/2 G "Am"c/2-c z/2 c/2|"D7"A/2 c "G7"B/2-B d|"C"c z "G7"B z
w:brought him string_ and seal-ing wax_ and oth-er fan-_cy stuff. Oh,
w:Pir-ate ships_ would low'r their flag,_ when Puff roared out_ his name. Oh,
w:Puff that might-_y drag-_on,_ He ceased his fear-_less roar. Oh,
w:Puff that might-_y drag-_on,_ sadly slipped in-to_ his cave. Oh,
P:B Chorus
|"C"c z c/2 c c|"Em"B2 G z|"F"A3/2 c/2-c c|"C"G2 z G
w:Puff, the mag-ic drag-on lived by_ the sea, and
|"F"F/2 F G/2-G F|"C"E/2 G "Am"c/2-c c/2c/2|"D7"c A B/2 c "G7"d/2-|d3 z
w:frol-icked in_ the Au-umn mist_ in a land called Ho-nah-lee._
|"C"c z/2 c/2 c c|"Em"B2 G z|"F"A3/2 c/2-c c|"C"G2 z G
w:Puff, the mag-ic drag-on lived by_ the sea, and
|"F"F/2 F G/2-G F|"C"E/2 G "Am"c/2-c c/2c/2
w:frol-icked in_ the Au-tumn mist_ in a
|1,2,3 "D7"A c "G7"B d|"C"c2 z z/2 "G7"d/2:|4 "D7"A2 c2|"G7"B2 d2|"C"c4-c2 z2||
w:land called Ho-nah-lee. To- land called Ho-Nah-Lee._
w:* * * * * A
w:* * * * * His
